arcticons-dark/symbolic/places/folder-video-symbolic.svg

<?xml version="1.0" encoding="UTF-8" standalone="no"?>
<svg
   viewBox="0 0 48 48"
   version="1.1"
   id="svg1"
   sodipodi:docname="folder-video.svg"
   xmlns:inkscape="http://www.inkscape.org/namespaces/inkscape"
   xmlns:sodipodi="http://sodipodi.sourceforge.net/DTD/sodipodi-0.dtd"
   xmlns="http://www.w3.org/2000/svg"
   xmlns:svg="http://www.w3.org/2000/svg">
  <sodipodi:namedview
     id="namedview1"
     pagecolor="#ffffff"
     bordercolor="#666666"
     borderopacity="1.0"
     inkscape:showpageshadow="2"
     inkscape:pageopacity="0.0"
     inkscape:pagecheckerboard="0"
     inkscape:deskcolor="#d1d1d1" />
  <defs
     id="defs1">
    <style
       id="style1">.c{fill:none;stroke:#fff;stroke-width:2px;stroke-linecap:round;stroke-linejoin:round;}</style>
  </defs>
  <g
     id="a">
    <path
       style="color:#000000;fill:#ffffff;stroke-linecap:round;stroke-linejoin:round;-inkscape-stroke:none"
       d="m 7.5,7.5 c -2.1973046,0 -4,1.8026954 -4,4 v 25 c 0,2.197305 1.8026954,4 4,4 h 33 c 2.197305,0 4,-1.802695 4,-4 v -20 c 0,-2.197305 -1.802695,-4 -4,-4 H 25.78125 c -0.625391,0 -1.233313,-0.195091 -1.742188,-0.558594 L 19.125,8.4316406 C 18.277059,7.8260218 17.260757,7.5 16.21875,7.5 Z m 0,2 h 8.71875 c 0.625391,0 1.23313,0.1950136 1.742187,0.558594 L 22.875,13.568359 C 23.722924,14.174055 24.739243,14.5 25.78125,14.5 H 40.5 c 1.116492,0 2,0.883508 2,2 v 20 c 0,1.116492 -0.883508,2 -2,2 h -33 c -1.1164921,0 -2,-0.883508 -2,-2 v -25 c 0,-1.116492 0.8835079,-2 2,-2 z"
       id="path1" />
  </g>
  <g
     id="b">
    <path
       style="color:#000000;fill:#ffffff;stroke-linecap:round;stroke-linejoin:round;-inkscape-stroke:none"
       d="M 17.4375,18.634766 A 1.0001,1.0001 0 0 0 16.9375,19.5 v 14 a 1.0001,1.0001 0 0 0 1.5,0.865234 l 12.125,-7 a 1.0001,1.0001 0 0 0 0,-1.730468 l -12.125,-7 a 1.0001,1.0001 0 0 0 -1,0 z m 1.5,2.595703 L 28.064453,26.5 18.9375,31.769531 Z"
       id="polygon1" />
  </g>
</svg>

<?xml version="1.0" encoding="UTF-8"?>
<svg id="svg12" version="1.1" viewBox="0 0 48 48" xmlns="http://www.w3.org/2000/svg">
 <defs id="defs4">
  <style id="style2">.c{fill:none;stroke:#fff;stroke-width:2px;stroke-linecap:round;stroke-linejoin:round;}</style>
 </defs>
 <g id="a">
  <path id="path6" d="m7.5 7.5c-2.1973 0-4 1.8027-4 4v25c0 2.1973 1.8027 4 4 4h33c2.1973 0 4-1.8027 4-4v-20c0-2.1973-1.8027-4-4-4h-14.719c-0.62539 0-1.2333-0.19509-1.7422-0.55859l-4.9141-3.5098c-0.84794-0.60562-1.8642-0.93164-2.9062-0.93164zm0 2h8.7188c0.62539 0 1.2331 0.19501 1.7422 0.55859l4.9141 3.5098c0.84792 0.6057 1.8642 0.93164 2.9062 0.93164h14.719c1.1165 0 2 0.88351 2 2v20c0 1.1165-0.88351 2-2 2h-33c-1.1165 0-2-0.88351-2-2v-25c0-1.1165 0.88351-2 2-2z" color="#000000" fill="#fff" stroke-linecap="round" stroke-linejoin="round" style="-inkscape-stroke:none"/>
 </g>
 <g id="b">
  <path id="polygon9" d="m17.438 18.635a1.0001 1.0001 0 0 0-0.5 0.86523v14a1.0001 1.0001 0 0 0 1.5 0.86523l12.125-7a1.0001 1.0001 0 0 0 0-1.7305l-12.125-7a1.0001 1.0001 0 0 0-1 0zm1.5 2.5957 9.127 5.2695-9.127 5.2695z" color="#000000" fill="#fff" stroke-linecap="round" stroke-linejoin="round" style="-inkscape-stroke:none"/>
 </g>
</svg>
